X:31
T:Branle
M:C|
L:1/4
K:G
|: GABB  | c2 cc | BABG | A2 AA | GABB  | c2 cc | B A/2G/2 A=F | G2 G2 :|
|: d2 ed | c2 cc | BABc | d2 dd | d2 ed | c2 cc | BGAF         | G2 G2 :|
